X:210
T: REDLICH IST DAS DEUTSCHE LEBEN
N: E1349A
O: Europa, Mitteleuropa, Deutschland; Frankreich, Elsass
R: Staende -, Soldaten -, Kriegs - Lied
M: 4/4
L: 1/8
K: Eb
E2G2 | F3AF2A2 | AGG2z2
G2 | F3EDDFA | cBB2z2
BB | e3dc2B2 | B4
G2E2 | c2B2A3G | G4

